X:148
T: O TANNENBAUM
N: B0638
O: Europa, Mitteleuropa, Deutschland
R: Kinder -, Weihnachts - Lied
M: 3/4
L: 1/16
K: G
D4 | G3GG4A4 | B3BB6
G2 | A2B2c4F4 | A4G4z2
B2 | d2B2e6d2 | d3cc6
c2 | c2A2d6c2 | c3BB4
D4 | G3GG4A4 | B3BB6
G2 | A2B2c4F4 | A4G4

